X:022
T:Gallways Lament
S:Andrew Adam's Music Book (ms) 1710
Z:Nigel Gatherer
M:3/4
L:1/8
K:Bb
d2|g2 g2 a2|g3 f d2|f2 gagf|f3 gaf|d2 g2 ga|g4 f2|d2 ca ca|G4|]
